X:1
T:Title
%%score { ( 1 4 ) | ( 2 3 ) }
L:1/8
M:4/4
K:Eb
V:1 treble nm="Grand Piano"
V:4 treble 
V:2 bass 
V:3 bass 
V:1
 z4 z2[Q:1/4=100] [GB]>[FA] | G>G G>A G>F E>E |[M:3/4] C>[CE] [CE]>[CEA] [B,EG]2 | %3
[M:1/4] [B,EG]>[B,EG] |[M:4/4] [DF]>[_D=E] [=DF]>[_EG] [FA]>[FA] [EG]>[DF] |[M:3/4] G4 B2 | %6
[M:1/4] [B,GB]>[B,FA] |[M:4/4] G>G G>A G>F E>E |[M:3/4] C>[CE] [CE]>[CEA] [B,EG]2 | %9
[M:1/4] [B,EG]>[B,EG] |[M:4/4] [DF]>[_D=E] [=DF]>[_EG] [FA]>[FA] [EG]>[DF] |[M:3/4] E6 | %12
[M:1/4] [GB]>[GB] |[M:4/4] [Ge]>[Ge] [Ge]>[GB] [Ac]>[GB] [EG]>[B,F] |[M:3/4] [CE]>[CE] [CE]>C B,2 | %15
[M:1/4] G>B |[M:4/4] A6 z2 | B6 z2 | [Ge]>[Ge] [Ge]>[GB] [Ac]>[GB] [EG]>[B,F] | %19
 [CE]>[CE] [CE]>C B,2 A>c | B6 z2 |[M:3/4] E6 |] %22
V:2
 z4 z2 [E,B,]>[E,B,] | [E,B,E]>[E,B,E] [E,B,E]>[E,CE] [E,B,E]>[E,A,B,] [E,G,B,]>[E,G,B,] | %2
[M:3/4] [A,,A,]>[A,,A,] [A,,A,]>A,, E,2 |[M:1/4] E,>E, | %4
[M:4/4] [B,,B,]>[B,,B,] [B,,B,]>[B,,B,] [B,,B,]>[B,,B,] [B,,B,]>[B,,B,] |[M:3/4] E4 z2 | %6
[M:1/4] E,>E, |[M:4/4] [E,B,E]>[E,B,E] [E,B,E]>[E,CE] [E,B,E]>[E,A,B,] [E,G,B,]>[E,G,B,] | %8
[M:3/4] [A,,A,]>[A,,A,] [A,,A,]>A,, E,2 |[M:1/4] E,>E, | %10
[M:4/4] [B,,B,]>[B,,B,] [B,,B,]>[B,,B,] [B,,B,]>[B,,B,] [B,,B,]>[B,,A,] |[M:3/4] [E,G,]6 | %12
[M:1/4] [E,E]>[E,E] |[M:4/4] [E,B,]>[E,B,] [E,B,]>[E,E] [E,E]>[E,E] [E,B,]>[E,A,] | %14
[M:3/4] [A,,A,]>[A,,A,] [A,,A,]>[A,,E,A,] [E,G,]2 |[M:1/4] z2 | %16
[M:4/4] z2 [B,,B,]>[B,,B,] [B,,B,]2 z2 | z2 [E,G,]>[E,G,] [E,G,]2 [E,B,]>[E,B,] | %18
 [E,B,]>[E,B,] [E,B,]>[E,E] [E,E]>[E,E] [E,B,]>[E,A,] | %19
 [A,,A,]>[A,,A,] [A,,A,]>[A,,E,A,] [E,G,]2 z2 | z2 [B,,B,]>[B,,B,] [B,,B,]2 [B,,A,]>[B,,B,] | %21
[M:3/4] [G,B,]2 z2 z2 |] %22
V:3
 x8 | x8 |[M:3/4] x6 |[M:1/4] x2 |[M:4/4] x8 |[M:3/4] [E,B,]4- [E,B,G]2 |[M:1/4] x2 |[M:4/4] x8 | %8
[M:3/4] x6 |[M:1/4] x2 |[M:4/4] x8 |[M:3/4] x6 |[M:1/4] x2 |[M:4/4] x8 |[M:3/4] x6 |[M:1/4] x2 | %16
[M:4/4] x8 | x8 | x8 | x8 | x8 |[M:3/4] E,2- [E,-A,]>[E,-A,] [E,G,]2 |] %22
V:4
 x8 | x8 |[M:3/4] x6 |[M:1/4] x2 |[M:4/4] x8 |[M:3/4] x6 |[M:1/4] x2 |[M:4/4] x8 |[M:3/4] x6 | %9
[M:1/4] x2 |[M:4/4] x8 |[M:3/4] x6 |[M:1/4] x2 |[M:4/4] x8 |[M:3/4] x6 |[M:1/4] x2 | %16
[M:4/4] z2 F>F F2 A>c | z2 E>E E2 [GB]>[GB] | x8 | x8 | z2 D>D D2 [DF]>[DG] |[M:3/4] z2 C>C B,2 |] %22

